**kern	**kern
*staff1	*staff1
*head[head1a]	*head[head1a]
*head[head1b]	*head[head1b]
*head[head1aa]	*head[head1aa]
*solo1[solo1a]	*solo1[solo1a]
*solo1[solo1b]	*solo1[solo1b]
*head[head2a]	*head[head2a]
=1-	=1-
*clefG2	*clefG2
*k[]	*k[]
*F:	*F:
*M4/4	*M4/4
8r	.
*>head1a	*>head1a
{8b\L	.
8cc\	.
8dd\J	.
8ee\L	.
8dd\	.
8a\	.
8cc\J	.
=2	=2
8b-/L	1G:min
8a/	.
8b-/	.
8a/J	.
4.g/	.
8a/	.
=3	=3
8b-/L	1G:min
8d/	.
8f/	.
8a/J	.
4g/	.
8r	.
8a/	.
=4	=4
8b-\L	1G:min
16cc\L	.
16b-\J	.
8a\	.
8g\J	.
8b-\L	.
8cc\	.
8g\	.
8b-\J	.
=5	=5
8a/L	2G:min
8g/	.
8f/	.
8d/J	.
4.d-/	2C:dom
8a/	.
=6	=6
8e/L	1F:maj
8d/J	.
4e/	.
8r	.
4f/	.
8g/	.
=7	=7
8a/L	2G:min
8f/	.
8g/	.
8a/J	.
8b-\L	2C:dom
8cc\	.
8dd-\	.
8b-\J	.
=8	=8
4cc\}	1F:maj
4r	.
4r	.
8r	.
{8b-\	.
=9	=9
8cc\L	2A:min
8dd\	.
8ee-\	.
[8dd\J	.
4dd\]}	2D:dom
8r	.
{8a/	.
=10	=10
8b-/L	1G:min
8a/	.
8b-/	.
8a/J	.
4.g/	.
8a/	.
=11	=11
8b-/L	1G:min
8d/	.
8f/	.
8a/J	.
4g/	.
8r	.
8a/	.
=12	=12
8b-\L	1G:min
16cc\L	.
16b-\J	.
8a\	.
8g\J	.
8b-\L	.
8cc\	.
8g\	.
8b-\J	.
=13	=13
8a/L	2G:min
8g/	.
8f/	.
8d/J	.
4.d-/	2C:dom
8a/	.
=14	=14
8e/L	1F:maj
8d/J	.
4e/	.
8r	.
4f/	.
8g/	.
=15	=15
8a/L	2G:min
8f/	.
8g/	.
8a/J	.
8b-\L	2C:dom
8cc\	.
8dd-\	.
8b-\J	.
=16	=16
4cc\}	1F:maj
4r	.
2r	.
=17	=17
8r	1F:maj
*>head1b	*>head1b
{16c/LL	.
16d/J	.
8f/	.
8g/J	.
8a/L	.
8b-/	.
8cc/	.
8a/J	.
=18	=18
8b-\L	1C:min
16cc\L	.
16b-\J	.
8a\	.
8g\J	.
8f/L	.
8e/	.
8e-/	.
8G/J	.
=19	=19
8d/L	1F:dom
[8c/J	.
4c/]}	.
2r	.
=20	=20
2r	1B-:maj
8r	.
{8d/L	.
8f/	.
8g/J	.
=21	=21
8a/L	1B-:maj
8b-/	.
8cc/	.
8a/J	.
8b-\L	.
16cc\L	.
16b-\J	.
8g\	.
8f\J	.
=22	=22
4a/	1G:dom
8r	.
16d/LL	.
16e/JJ	.
8f/L	.
8g/	.
8a/	.
8b/J	.
=23	=23
8ee\L	1G:dom
[8dd\J	.
4dd\]}	.
2r	.
=24	=24
8r	1G:min
*>head1aa	*>head1aa
{8f#/	.
12g\L	.
12b-\	.
12dd\J	.
8ff\	.
24ee\LL	.
24dd\	.
24cc\JJ	.
8b-/L	.
8a/J	.
=25	=25
8g/L	1C:dom
8f/J	.
12e/L	.
12g/	.
12b-/J	.
16dd-\LL	.
16ee-\J	.
[8cc\	.
8cc\]	.
8a\J	.
=26	=26
8b-/L	1G:min
8a/	.
8b-/	.
8a/J	.
4.g/	.
8a/	.
=27||	=27||
8b-/L	1G:min
8d/	.
8f/	.
8a/J	.
4g/	.
8r	.
8a/	.
=28	=28
8b-\L	1G:min
16cc\L	.
16b-\J	.
8a\	.
8g\J	.
8b-\L	.
8cc\	.
8g\	.
8b-\J	.
=29	=29
8a/L	2G:min
8g/	.
8f/	.
8d/J	.
4.d-/	2C:dom
8a/	.
=30	=30
8e/L	1F:maj
8d/J	.
4e/	.
8r	.
4f/	.
8g/	.
=31	=31
8a/L	2G:min
8f/	.
8g/	.
8a/J	.
8b-\L	2C:dom
8cc\	.
8dd-\	.
8b-\J	.
=32	=32
4cc\}	1F:maj
4r	.
2r	.
=33	=33
8r	2A:min
*>solo1a	*>solo1a
{16g\LL	.
16a\J	.
8b-\	.
16cc\L	.
16b-\JJ	.
8a/L	2D:dom
8g/	.
8g-/	.
8a/J	.
=34	=34
24g/LL	1G:min
24a/	.
24g/JJ	.
8f/L	.
8e/	.
8d/J	.
8r	.
8d/L	.
8f/	.
8d/J	.
=35||	=35||
8B-/L	1G:min
8G/	.
8A/	.
8G/J	.
4c/}	.
4r	.
=36	=36
2r	1G:min
8r	.
{8c#/	.
20d/LL	.
20f/	.
20a/	.
20b-/	.
20cc/JJ	.
=37	=37
4a/	2G:min
8cc/L	.
[8a-/J	.
4a-/]}	2C:dom
4r	.
=38	=38
4r	1F:maj
8r	.
{8c/	.
8g/L	.
8g-/	.
8f/	.
8e-/J	.
=39	=39
8d/L	2G:min
8F/	.
8G/	.
8B-/J	.
8d-/L	2C:dom
8f/	.
8c/	.
8B-/J	.
=40	=40
8A/L	1F:maj
8c/	.
8d/	.
[8e/J	.
4e/]}	.
4r	.
=41	=41
2r	2A:min
2r	2D:dom
=42	=42
8r	1G:min
{8f#/	.
12g\L	.
12b-\	.
12dd\J	.
8ff#\L	.
8gg\	.
8ee\J	.
8r	.
=43||	=43||
8ee\L	1G:min
8ff\	.
8dd\J	.
8r	.
8ee-\L	.
8een\J}	.
4r	.
=44	=44
2r	1G:min
8r	.
{[8dd\L	.
8dd\]	.
16b-\L	.
16g\JJ	.
=45	=45
8a/L	2G:min
8b-/	.
8cc/	.
8a/J	.
8b-\L	2C:dom
8cc\J	.
16dd-\LL	.
16ee-\J	.
[8cc\J	.
=46	=46
4.cc\]	1F:maj
8a/	.
24b-\LL	.
24cc\	.
24b-\JJ	.
8a/L	.
8g/	.
8g-/J	.
=47	=47
8f/L	2G:min
8e-/J	.
12d/L	.
12f/	.
12a/J	.
8cc/L	2C:dom
8b-/	.
8d-/	.
8B/J	.
=48	=48
8c/L	1F:maj
8b-/	.
8g/	.
8g#/J	.
8a/L	.
[8f/J	.
4f/]}	.
=49	=49
1r	1F:maj
=50	=50
8r	1C:min
{16c/LL	.
16e-/JJ	.
16g/LL	.
16a/	.
16b-/	.
16cc/JJ	.
8dd\L	.
8cc\J}	.
4r	.
=51||	=51||
8r	1F:dom
{16c/LL	.
16e-/JJ	.
12g-/L	.
12a/	.
12dd-/J	.
4.aa-\	.
8gg-\	.
=52	=52
8ff\L	1B-:maj
16ee\L	.
16ee-\J	.
8dd\	.
[8ee-\J	.
8ee-\L]	.
16dd\L	.
16dd-\J	.
8cc\	.
[8ddn\J	.
=53	=53
4dd\]}	1B-:maj
4r	.
2r	.
=54	=54
8r	1G:dom
{16d/LL	.
16e/J	.
8f/	.
8g/J	.
8a\L	.
8b\	.
8ee\	.
16ee-\L	.
16dd\JJ	.
=55	=55
8dd-/L	1G:dom
8a/	.
8f/	.
8d-/J	.
4a/}	.
4r	.
=56	=56
4r	1G:min
8r	.
{8f#/	.
12g\L	.
12b-\	.
12dd\J	.
8ff\	.
24dd\LL	.
24dd-\	.
24cc\JJ	.
=57	=57
8b-/L	1C:dom
8a/	.
8g/	.
8f/J	.
12e/L	.
12g/	.
12b-/J	.
8dd\L	.
[8cc\J	.
=58	=58
8cc\]	1G:min
8r	.
8c/L	.
8c/J	.
4b-\	.
8c/L	.
8c/J	.
=59||	=59||
4a/	1G:min
8c/L	.
[8g/J	.
4g/]}	.
4r	.
=60	=60
4r	1G:min
8r	.
{16d/LL	.
16c/JJ	.
8B/L	.
8c/	.
8e/	.
8g/J	.
=61	=61
8cc\L	2G:min
8a\	.
8b-\	.
16cc\L	.
16b-\JJ	.
8a-/L	2C:dom
16e/L	.
16c/JJ	.
4B-/}	.
=62	=62
4r	1F:maj
8r	.
{8G#/	.
8A/L	.
16c/L	.
16e/J	.
8g/	.
8g-/J	.
=63	=63
8f/L	2G:min
8e-/J	.
12d/L	.
12f/	.
12a/J	.
8cc/L	2C:dom
8b-/	.
8d-/	.
8B/J	.
=64	=64
8c/L	1F:maj
8B-/	.
8.a/	.
16b-/Jk	.
16a/LL	.
16f/	.
16c/JJ}	.
16r	.
4r	.
=65	=65
4r	2A:min
8r	.
{[8A/	.
4A/]	2D:dom
8c/L	.
8e/J	.
=66	=66
2d/}	1G:min
2r	.
=67||	=67||
1r	.
=68	=68
1r	.
=69	=69
1r	.
=70	=70
1r	.
=71	=71
1r	.
=72	=72
1r	.
=73	=73
1r	.
=74	=74
1r	.
=75	=75
1r	.
=76	=76
1r	.
=77	=77
1r	.
=78	=78
1r	.
=79	=79
1r	.
=80	=80
1r	.
=81	=81
1r	.
=82	=82
1r	.
=83	=83
1r	.
=84	=84
1r	.
=85	=85
1r	.
=86	=86
1r	.
=87	=87
1r	.
=88	=88
1r	.
=89	=89
1r	.
=90	=90
1r	.
=91	=91
1r	.
=92	=92
1r	.
=93	=93
1r	.
=94	=94
1r	.
=95	=95
1r	.
=96	=96
1r	.
=97	=97
1r	.
=98	=98
1r	.
=99||	=99||
1r	.
=100	=100
1r	.
=101	=101
1r	.
=102	=102
1r	.
=103	=103
1r	.
=104	=104
1r	.
=105	=105
1r	.
=106	=106
1r	.
=107	=107
1r	.
=108	=108
1r	.
=109	=109
1r	.
=110	=110
1r	.
=111	=111
1r	.
=112	=112
1r	.
=113	=113
1r	.
=114	=114
1r	.
=115||	=115||
1r	.
=116	=116
2r	1B-:maj
8r	.
*>solo1b	*>solo1b
{8c#/	.
12d/L	.
12f/	.
12a/J	.
=117	=117
8cc\L	1B-:maj
8a\	.
8b-\	.
16cc\L	.
16b-\JJ	.
8a/L	.
8g/	.
8e-/	.
8c/J	.
=118	=118
8f/L	1G:dom
[8e-/J	.
4e-/]}	.
2r	.
=119	=119
1r	1G:dom
=120	=120
8r	1G:min
{8d/	.
16f/LL	.
16a/	.
16b-/	.
16dd/JJ	.
16ff\LL	.
16dd\	.
16ee-\	.
16een\JJ	.
16cc\LL	.
16cc#\	.
16dd\	.
16ccn\JJ	.
=121	=121
16b-/LL	1C:dom
16a/	.
16g/	.
16f/JJ	.
16e/LL	.
16g/	.
16b-/	.
16dd/JJ	.
4cc\}	.
8r	.
*>head2a	*>head2a
{8a/	.
=122	=122
8b-/L	1G:min
8a/	.
8b-/	.
8a/J	.
4.g/	.
8a/	.
=123||	=123||
8b-/L	1G:min
8d/	.
8f/	.
8a/J	.
4g/	.
8r	.
8a/	.
=124	=124
8b-\L	1G:min
16cc\L	.
16b-\J	.
8a\	.
8g\J	.
8b-\L	.
8cc\	.
8g\	.
8b-\J	.
=125	=125
8a/L	2G:min
8g/	.
8f/	.
8d/J	.
4.d-/	2C:dom
8a/	.
=126	=126
8e/L	1F:maj
8d/J	.
4e/	.
8r	.
4f/	.
8g/	.
=127	=127
8a/L	2G:min
8f/	.
8g/	.
8a/J	.
8b-\L	2C:dom
8cc\	.
8dd-\	.
8b-\J	.
=128	=128
4cc\	1F:maj
8r	.
8a/	.
8b-/L	.
8cc/	.
8a/	.
8f/J}	.
==	==
*-	*-
